F[BALLADE
CUT[Wiedersehen an der Bahre
    Ein Bursch' wollt' in die Fremde ziehn]
CNR[und wollte niemals kommen.]
REG[Mitteleuropa, Oesterreich, Ostmark, Burgenland]
SRC[3, S. 86
    1930 aufgezeichnet]
KEY[Q0056M 16  F 2/4]
MEL[5_  6_.54_3_  5_5_2_
    5_  6_.54_3_  5_2_0_
    5_  +1_7_+2_.+1  7_.6+1_
    57  7_.65_.4  4_3_0_
    5_  +1_7_+2_.+1  7_.6+1_
    57  7_.65_.4  4_3_0_ //] >>
FCT[Ballade, Abschied, Enttaeuschung, Tod, Selbstmord]
